X:1
T:The Shadow Of Your Smile
C:Johnny Mandel
L:1/8
M:C
I:linebreak $
K:Eb
z2 z G, CDEG |"Dm" =A,4 z2 D2 |"G7" =B,4 z2 A,2 |"Cm" G,4"CmM" z4 |$"Cm" z2 z G,"F7" CDEG |
"Fm" C4 z2 F2 |"Bb7" D4 z2 B,2 |"Eb" G8 |$"Ab" z4 AGFE |"Dø" F4 z2 A,2 |"G7" G,4 z2 F2 |
"Cm" E4"CmM" z4 |$"Cm" z4"Cm/Bb" GFED |"Aø" E4 z2 G,2 |"D7" ^F,4"Ab7" z2 E2 |"G7" D8 ||$
z2 z G, CDEG |"Dm" =A,4 z2 D2 |"G7" =B,4 z2 A,2 |"Cm" G,4"CmM" z4 |$"Cm" z2 z G,"F7" CDEG |
"Fm" C4 z2 A2 |"Bb4" F4"Fo" z2 D2 |"Gø" B8 |$"C7" z4 cBAG |"Fm" A3"F#m" C"Gm" A4 |
"Abm" z4"Db7" BAGF |"Gm" G3 B,"Gø" G4 |$"C4" z4"Gb7" AGF=E |"F7" F3 =A, F4 |
"Fm" z2 z A,"Bb4" GFED |"Eb6" E8 |]

